src/2-landmarks/service-module--handle-card.svg

<svg width="1300" height="1000" viewBox="0 0 1300 1000" fill="none" xmlns="http://www.w3.org/2000/svg"><path fill-rule="evenodd" clip-rule="evenodd" d="M987 335c1.842-.004 8.88-.506 12.649-1.914 4.511-1.684 8.751-4.937 11.671-8.613 2.11-2.652 4.28-8.036 5.32-10.829a25.09 25.09 0 0 0 1.01-3.617l4.86-23.833c.29-1.783.49-3.939.49-5.742 0-4.783-.91-9.015-2.92-13.398-2.01-4.383-4.59-8.232-8.27-11.484-3.68-3.252-8.52-6.048-13.262-7.625-4.737-1.466-6.585-1.778-11.548-1.945-4.624.038-7.296.483-11.676 1.945-5.64 1.883-8.779 3.629-13.135 7.625-4.085 3.749-6.038 6.446-8.27 11.484-2.173 4.905-2.899 8.047-2.919 13.398-.008 2.25.487 5.742.487 5.742l4.093 24.154c.19 1.122.439 2.231.801 3.31.884 2.63 2.832 7.831 5.322 10.853 3.679 4.466 6.714 6.496 12.162 8.575C978.699 334.931 987 335 987 335Zm0-7c1.484-.004 7.153-.427 10.189-1.613 3.631-1.419 7.051-4.16 9.401-7.258 1.65-2.168 3.34-6.503 4.21-8.91.4-1.135.7-2.302.93-3.486l3.88-19.862c.23-1.502.39-3.319.39-4.839 0-4.03-.73-7.596-2.35-11.29-1.62-3.694-3.7-6.937-6.66-9.677-2.97-2.741-6.87-5.097-10.688-6.426-3.815-1.236-5.304-1.498-9.302-1.639-3.725.032-5.878.407-9.405 1.639-4.544 1.587-7.073 3.058-10.581 6.426-3.292 3.159-4.864 5.431-6.663 9.677-1.75 4.134-2.335 6.781-2.351 11.29-.007 1.896.392 4.839.392 4.839l3.265 20.155c.174 1.079.403 2.145.741 3.184.739 2.271 2.275 6.477 4.224 8.951 2.963 3.764 5.408 5.474 9.797 7.226C980.313 327.942 987 328 987 328Zm-247.879 8.941a3 3 0 0 1 0-4.243l27.577-27.577a3 3 0 0 1 4.243 0l41.719 41.719a3 3 0 0 1 0 4.243l-8.651 8.651L823.5 386.5l42.5 42s13.5-22.5 33.873-53.282c25.627-27.218 48.969-34.623 85.944-34.197 40.123.434 65.133 5.804 80.183 34.979 17.52 36.035 23.43 91.5 23.43 93.162 0 9.784-.19 20.34-.47 30.838h90.54c11.32 0 20.5 9.178 20.5 20.5 0 11.155-8.91 20.229-20 20.494V900h120v100H0V900h788V540.994c-11.091-.265-20-9.339-20-20.494 0-11.322 9.178-20.5 20.5-20.5h126.721l1.279-13 7-52.5-50.664 59.101a5 5 0 0 1-7.594-.066L782 396l-5.462-21.642-37.417-37.417ZM923.27 500h119.93l-1.2-12-3.4-68.664a1.235 1.235 0 0 1 1.24-1.324c.61.005 1.13.462 1.21 1.07l7.46 50.009 2.81 30.909h30.01l.11-27.529h-.01s-4.44-56.684-20.98-91.956c-14.2-28.557-36.99-32.069-74.96-32.494-17.99-.213-58.49 2.979-80.27 32.494C881 418.021 867.5 440 867.5 440L816 390l-22.857-34.285a7.22 7.22 0 0 0-6.007-3.215c-4.816 0-8.282 4.626-6.929 9.248l2.639 9.019.115.115 1.115 4.086L789.5 393.5l77.233 90.32a3 3 0 0 0 4.561.023l57.416-65.487a.97.97 0 0 1 1.699.717L924.5 487.5l-1.23 12.5ZM788.5 534h391c7.46 0 13.5-6.044 13.5-13.5s-6.04-13.5-13.5-13.5h-391c-7.456 0-13.5 6.044-13.5 13.5s6.044 13.5 13.5 13.5Zm384.5 7H795v359h378V541ZM773.314 361.234c-.803-6.612 4.207-13.744 10.764-15.263 5.089-1.178 11.383 1.854 14.375 6.135l1.384 1.9 5.045-5.045-36.063-36.062-21.92 21.92 26.415 26.415Z" fill="#000"/></svg>

<svg width="1300" height="1000" viewBox="0 0 1300 1000" fill="none" xmlns="http://www.w3.org/2000/svg">
<path fill-rule="evenodd" clip-rule="evenodd" d="M987 335C988.842 334.996 995.88 334.494 999.649 333.086C1004.16 331.402 1008.4 328.149 1011.32 324.473C1013.43 321.821 1015.6 316.437 1016.64 313.644C1017.07 312.468 1017.4 311.256 1017.65 310.027L1022.51 286.194C1022.8 284.411 1023 282.255 1023 280.452C1023 275.669 1022.09 271.437 1020.08 267.054C1018.07 262.671 1015.49 258.822 1011.81 255.57C1008.13 252.318 1003.29 249.522 998.548 247.945C993.811 246.479 991.963 246.167 987 246C982.376 246.038 979.704 246.483 975.324 247.945C969.684 249.828 966.545 251.574 962.189 255.57C958.104 259.319 956.151 262.016 953.919 267.054C951.746 271.959 951.02 275.101 951 280.452C950.992 282.702 951.487 286.194 951.487 286.194L955.58 310.348C955.77 311.47 956.019 312.579 956.381 313.658C957.265 316.288 959.213 321.489 961.703 324.511C965.382 328.977 968.417 331.007 973.865 333.086C978.699 334.931 987 335 987 335ZM987 328C988.484 327.996 994.153 327.573 997.189 326.387C1000.82 324.968 1004.24 322.227 1006.59 319.129C1008.24 316.961 1009.93 312.626 1010.8 310.219C1011.2 309.084 1011.5 307.917 1011.73 306.733L1015.61 286.871C1015.84 285.369 1016 283.552 1016 282.032C1016 278.002 1015.27 274.436 1013.65 270.742C1012.03 267.048 1009.95 263.805 1006.99 261.065C1004.02 258.324 1000.12 255.968 996.302 254.639C992.487 253.403 990.998 253.141 987 253C983.275 253.032 981.122 253.407 977.595 254.639C973.051 256.226 970.522 257.697 967.014 261.065C963.722 264.224 962.15 266.496 960.351 270.742C958.601 274.876 958.016 277.523 958 282.032C957.993 283.928 958.392 286.871 958.392 286.871L961.657 307.026C961.831 308.105 962.06 309.171 962.398 310.21C963.137 312.481 964.673 316.687 966.622 319.161C969.585 322.925 972.03 324.635 976.419 326.387C980.313 327.942 987 328 987 328Z" fill="black"/>
<path fill-rule="evenodd" clip-rule="evenodd" d="M739.121 336.941C737.949 335.769 737.949 333.87 739.121 332.698L766.698 305.121C767.87 303.949 769.769 303.949 770.941 305.121L812.66 346.84C813.832 348.012 813.832 349.911 812.66 351.083L804.009 359.734L823.5 386.5L866 428.5C866 428.5 879.5 406 899.873 375.218C925.5 348 948.842 340.595 985.817 341.021C1025.94 341.455 1050.95 346.825 1066 376C1083.52 412.035 1089.43 467.5 1089.43 469.162C1089.43 478.946 1089.24 489.502 1088.96 500H1179.5C1190.82 500 1200 509.178 1200 520.5C1200 531.655 1191.09 540.729 1180 540.994V900H1300V1000H0V900H788V540.994C776.909 540.729 768 531.655 768 520.5C768 509.178 777.178 500 788.5 500H915.221L916.5 487L923.5 434.5L872.836 493.601C870.82 495.913 867.217 495.881 865.242 493.535L782 396L776.538 374.358L739.121 336.941ZM923.27 500H1043.2L1042 488L1038.6 419.336C1038.55 418.618 1039.12 418.005 1039.84 418.012C1040.45 418.017 1040.97 418.474 1041.05 419.082L1048.51 469.091L1051.32 500H1081.33L1081.44 472.471H1081.43C1081.43 472.471 1076.99 415.787 1060.45 380.515C1046.25 351.958 1023.46 348.446 985.49 348.021C967.5 347.808 927 351 905.22 380.515C881 418.021 867.5 440 867.5 440L816 390L793.143 355.715C791.804 353.707 789.55 352.5 787.136 352.5C782.32 352.5 778.854 357.126 780.207 361.748L782.846 370.767L782.961 370.882L784.076 374.968L789.5 393.5L866.733 483.82C867.923 485.227 870.09 485.238 871.294 483.843L928.71 418.356C928.894 418.143 929.162 418.021 929.444 418.021C930.012 418.021 930.458 418.507 930.409 419.073L924.5 487.5L923.27 500ZM788.5 534H1179.5C1186.96 534 1193 527.956 1193 520.5C1193 513.044 1186.96 507 1179.5 507H788.5C781.044 507 775 513.044 775 520.5C775 527.956 781.044 534 788.5 534ZM1173 541H795V900H1173V541ZM773.314 361.234C772.511 354.622 777.521 347.49 784.078 345.971C789.167 344.793 795.461 347.825 798.453 352.106L799.837 354.006L804.882 348.961L768.819 312.899L746.899 334.819L773.314 361.234Z" fill="black"/>
</svg>
